X: 31656
T: Parnell's March
R: jig
M: 6/8
K: Gmajor
|:d2 c|B3 BGD d3- d2 c|BGD BG^c ded d2 =c|
BcB BGd e>dc BAG|A>BA d^cd A3 d2 =c|
B2 ^A BGD ded d2 B|c2 G c2 e g3- gfe|
d2 B GAB c2 A F>GA|A2 G G2 F G3:|
|:g2 d|e3 c3 c2 e gfe|d3 d^cd B3 B2 =c|
d3 d^cd e>d=c BAG|A>BA d^cd A2 D d2 =c|
BGD BGD d3- dcB|c2 G c2 e g3- gfe|
d2 B GAB c2 A F>GA|A2 G G2 F G3:|

